frontend/src/assets/icons/double-thumbs-up.svg

<svg width="28" height="33" viewBox="0 0 28 33" fill="none" xmlns="http://www.w3.org/2000/svg">
<g filter="url(#filter0_d_2408_657)">
<path fill-rule="evenodd" clip-rule="evenodd" d="M11.7649 7.95748V11.1378C11.7649 11.3524 11.7213 11.5696 11.6323 11.7713C10.2196 14.9715 8.13598 16.5404 6.13708 16.8975C6.0882 16.9062 6.0485 16.931 6.02642 16.955C6.01644 16.9658 6.01281 16.9734 6.01189 16.9756L6.01159 22.1124C6.01159 22.1124 6.01338 22.1148 6.01533 22.1166C6.02337 22.1241 6.03499 22.1289 6.04863 22.1281C7.68566 22.0291 8.74742 22.2044 9.56122 22.4814C9.96167 22.6177 10.2857 22.7732 10.5583 22.9074C10.5822 22.9191 10.6055 22.9306 10.6282 22.9418C10.8748 23.0634 11.0587 23.1541 11.2557 23.224C11.3666 23.2633 11.7011 23.3126 12.2836 23.3392C12.8291 23.3642 13.5032 23.3669 14.2226 23.3551C15.6597 23.3316 17.2404 23.2506 18.2559 23.1831L18.2802 23.1815H18.3046C18.4164 23.1815 18.4863 23.1674 18.5262 23.1547C18.5636 23.1429 18.5766 23.1318 18.5786 23.1301C18.5806 23.1284 18.5861 23.1236 18.5946 23.1074C18.6041 23.089 18.6177 23.0551 18.629 22.9986C18.6849 22.7204 18.6243 22.3158 18.5385 21.8383C18.4446 21.3157 18.7093 20.8612 19.061 20.6281C19.6738 20.222 19.6897 19.7302 19.6358 19.5642C19.536 19.257 19.5004 18.8011 19.7595 18.3947C20.015 17.9937 20.0077 17.7368 19.9692 17.5786C19.9223 17.3858 19.7916 17.1953 19.6055 17.0131C19.1865 16.6029 19.1371 15.9765 19.3815 15.5087C19.4853 15.3101 19.4849 15.1809 19.4698 15.0992C19.4522 15.0046 19.399 14.8961 19.2956 14.7802C19.1916 14.6636 19.0588 14.5651 18.936 14.4975C18.8782 14.4658 18.8314 14.4457 18.8012 14.4349H14.6447V11.7179C14.6447 9.33052 14.094 8.44501 13.641 8.1119C13.1753 7.76938 12.5268 7.78683 11.7649 7.95748ZM14.5205 6.84945C15.5845 7.63184 16.1558 9.18241 16.1558 11.7179V12.8824H18.8559C19.0206 12.8824 19.1741 12.9257 19.2801 12.9624C19.4001 13.0039 19.5256 13.0608 19.6494 13.1289C19.8948 13.2639 20.1712 13.464 20.4096 13.7312C20.6486 13.9991 20.8709 14.3597 20.9542 14.8087C21.0285 15.2096 20.9824 15.6309 20.8037 16.0513C21.0519 16.3268 21.3153 16.7096 21.4351 17.2019C21.5813 17.8026 21.4891 18.4618 21.0892 19.1384C21.3387 20.0081 21.0041 21.0798 20.0675 21.799C20.1375 22.2104 20.2133 22.7924 20.109 23.3122C20.0402 23.655 19.8823 24.0361 19.5434 24.325C19.2095 24.6096 18.7881 24.7295 18.3309 24.7339C17.2979 24.8022 15.7043 24.8836 14.2467 24.9075C13.5134 24.9195 12.8052 24.9171 12.2164 24.8902C11.6646 24.865 11.1128 24.8156 10.7629 24.6916C10.4784 24.5907 10.2148 24.4604 9.98215 24.3454C9.9562 24.3326 9.93063 24.3199 9.90546 24.3075C9.64457 24.1791 9.3915 24.0591 9.08609 23.9552C8.48815 23.7517 7.6232 23.5881 6.13746 23.6779C5.28233 23.7297 4.50049 23.0463 4.50049 22.1129V16.9765C4.50049 16.0939 5.1838 15.492 5.87824 15.3679C7.27448 15.1185 8.99728 13.9782 10.2538 11.1353V7.94945C10.2538 7.25415 10.7103 6.60727 11.4134 6.44726C12.2202 6.26369 13.4745 6.08017 14.5205 6.84945Z" fill="white"/>
</g>
<path fill-rule="evenodd" clip-rule="evenodd" d="M17.7648 1.95748V5.13779C17.7648 5.35238 17.7212 5.56963 17.6322 5.77133C16.2195 8.97148 15.086 10.9756 15.086 10.9756C15.0371 10.9844 15.0225 11.476 15.0004 11.5C15.086 9.50872 16.2537 13 15.0004 12L15.9821 13.5642C15.9821 13.5642 17.6302 12.9982 17.6322 13C17.6402 13.0075 17.2556 13.5 17.2556 13.5C18.8927 13.401 17.6866 13.2231 18.5004 13.5C18.9008 13.6363 19.2278 13.3658 19.5004 13.5C19.5004 13.5 19.4777 14.4888 19.5004 14.5C19.7471 14.6216 20.0496 14.758 20.2466 14.8278C20.3575 14.8671 19.6641 16.4734 20.2466 16.5C20.7921 16.525 19.5031 17.3669 20.2225 17.3551C21.6596 17.3316 23.2403 17.2506 24.2558 17.1831L24.2801 17.1815H24.3046C24.4163 17.1815 24.4862 17.1674 24.5261 17.1547C24.5636 17.1429 24.5766 17.1318 24.5785 17.1301C24.5805 17.1284 24.5861 17.1236 24.5945 17.1074C24.6041 17.089 24.6176 17.0551 24.6289 16.9986C24.6848 16.7204 24.6242 16.3158 24.5384 15.8383C24.4445 15.3157 24.7092 14.8612 25.0609 14.6281C25.6737 14.222 25.6896 13.7302 25.6357 13.5642C25.5359 13.257 25.5003 12.8011 25.7594 12.3947C26.015 11.9937 26.0076 11.7368 25.9691 11.5786C25.9222 11.3858 25.7915 11.1953 25.6054 11.0131C25.1864 10.6029 25.137 9.97651 25.3814 9.50872C25.4852 9.31008 25.4848 9.1809 25.4697 9.09924C25.4521 9.00457 25.3989 8.89607 25.2955 8.78018C25.1915 8.66363 25.0587 8.56511 24.9359 8.49754C24.8782 8.46575 24.8313 8.44566 24.8011 8.43489H20.6446V5.71793C20.6446 3.33052 20.0939 2.44501 19.6409 2.1119C19.1752 1.76938 18.5267 1.78683 17.7648 1.95748ZM20.5205 0.849453C21.5844 1.63184 22.1557 3.18241 22.1557 5.71793V6.88237H24.8558C25.0205 6.88237 25.174 6.92566 25.28 6.96236C25.4 7.00395 25.5255 7.06081 25.6493 7.12894C25.8947 7.26395 26.1711 7.46397 26.4095 7.73121C26.6485 7.99912 26.8708 8.35968 26.9541 8.80865C27.0284 9.20961 26.9823 9.63094 26.8036 10.0513C27.0518 10.3268 27.3152 10.7096 27.435 11.2019C27.5812 11.8026 27.489 12.4618 27.0891 13.1384C27.3386 14.0081 27.004 15.0798 26.0674 15.799C26.1374 16.2104 26.2132 16.7924 26.1089 17.3122C26.0401 17.655 25.8822 18.0361 25.5434 18.325C25.2095 18.6096 24.788 18.7295 24.3308 18.7339C23.2978 18.8022 21.7042 18.8836 20.2466 18.9075C19.5133 18.9195 20.8113 17.3821 20.2225 17.3551C19.6706 17.3299 20.3499 17.124 20 17C19.7155 16.8991 20.2326 16.115 20 16H19.5C19.2391 15.8716 20.254 14.3812 19.9486 14.2772C19.3507 14.0737 18.4857 13.9101 17 14C16.1449 14.0517 15.363 13.3684 15.363 12.435L15.086 10.9756C15.086 10.0931 13.806 8.12405 14.5004 8C15.8966 7.75059 15.086 8 16.2537 5.13532V1.94945C16.2537 1.25415 16.7102 0.607267 17.4133 0.447262C18.2201 0.263687 19.4744 0.0801679 20.5205 0.849453Z" fill="white"/>
<defs>
<filter id="filter0_d_2408_657" x="0" y="6.28613" width="25.5005" height="27.3422" filterUnits="userSpaceOnUse" color-interpolation-filters="sRGB">
<feFlood flood-opacity="0" result="BackgroundImageFix"/>
<feColorMatrix in="SourceAlpha" type="matrix" values="0 0 0 0 0 0 0 0 0 0 0 0 0 0 0 0 0 0 127 0" result="hardAlpha"/>
<feOffset dy="4"/>
<feGaussianBlur stdDeviation="2"/>
<feComposite in2="hardAlpha" operator="out"/>
<feColorMatrix type="matrix" values="0 0 0 0 0 0 0 0 0 0 0 0 0 0 0 0 0 0 0.25 0"/>
<feBlend mode="normal" in2="BackgroundImageFix" result="effect1_dropShadow_2408_657"/>
<feBlend mode="normal" in="SourceGraphic" in2="effect1_dropShadow_2408_657" result="shape"/>
</filter>
</defs>
</svg>

<svg width="21" height="23" viewBox="6 0 20 25" fill="none" xmlns="http://www.w3.org/2000/svg" version="1.1" xmlns:xlink="http://www.w3.org/1999/xlink"><g><path fill-rule="evenodd" clip-rule="evenodd" d="M11.765 7.957v3.18c0 0.215 -0.044 0.433 -0.133 0.634 -1.412 3.2 -3.496 4.77 -5.495 5.127a0.2 0.2 0 0 0 -0.11 0.057l-0.015 0.02v5.137l0.003 0.005q0.013 0.011 0.034 0.011c1.637 -0.099 2.698 0.076 3.512 0.353 0.4 0.137 0.725 0.292 0.997 0.426l0.07 0.035c0.247 0.121 0.43 0.212 0.628 0.282 0.11 0.04 0.445 0.089 1.028 0.115 0.545 0.025 1.22 0.028 1.939 0.016a87 87 0 0 0 4.033 -0.172l0.024 -0.002h0.025a0.7 0.7 0 0 0 0.221 -0.026c0.038 -0.012 0.05 -0.023 0.053 -0.025l0.016 -0.023a0.4 0.4 0 0 0 0.034 -0.108c0.056 -0.279 -0.005 -0.683 -0.09 -1.16 -0.094 -0.523 0.17 -0.978 0.522 -1.21 0.613 -0.407 0.629 -0.899 0.575 -1.065 -0.1 -0.307 -0.136 -0.763 0.123 -1.17 0.256 -0.4 0.249 -0.657 0.21 -0.815 -0.047 -0.193 -0.177 -0.384 -0.364 -0.566 -0.419 -0.41 -0.468 -1.037 -0.224 -1.504 0.104 -0.199 0.104 -0.328 0.089 -0.41a0.7 0.7 0 0 0 -0.174 -0.319 1.4 1.4 0 0 0 -0.495 -0.345h-4.156v-2.717c0 -2.387 -0.551 -3.273 -1.004 -3.606 -0.466 -0.343 -1.114 -0.325 -1.876 -0.155M14.52 6.85c1.065 0.783 1.636 2.333 1.636 4.869v1.164h2.7c0.165 0 0.318 0.044 0.424 0.08q0.182 0.064 0.37 0.167c0.245 0.135 0.521 0.335 0.76 0.602 0.239 0.268 0.46 0.629 0.544 1.078 0.075 0.4 0.028 0.822 -0.15 1.242 0.248 0.276 0.511 0.659 0.631 1.15 0.146 0.602 0.054 1.26 -0.346 1.937 0.25 0.87 -0.085 1.942 -1.021 2.661 0.07 0.411 0.145 0.993 0.041 1.513 -0.069 0.343 -0.227 0.724 -0.566 1.013 -0.334 0.285 -0.755 0.405 -1.212 0.409 -1.033 0.068 -2.627 0.15 -4.084 0.173 -0.734 0.012 -1.442 0.01 -2.03 -0.017 -0.552 -0.025 -1.104 -0.074 -1.454 -0.198 -0.285 -0.101 -0.548 -0.232 -0.78 -0.347l-0.078 -0.037a7 7 0 0 0 -0.819 -0.353c-0.598 -0.203 -1.463 -0.367 -2.949 -0.277A1.556 1.556 0 0 1 4.5 22.113v-5.136c0 -0.883 0.684 -1.485 1.378 -1.61 1.396 -0.249 3.12 -1.389 4.376 -4.232V7.95c0 -0.695 0.456 -1.342 1.16 -1.502 0.806 -0.183 2.06 -0.367 3.107 0.402" fill="white"></path></g><path fill-rule="evenodd" clip-rule="evenodd" d="M17.765 1.957v3.18c0 0.215 -0.044 0.433 -0.133 0.634 -1.413 3.2 -2.546 5.205 -2.546 5.205 -0.049 0.008 -0.063 0.5 -0.086 0.524 0.086 -1.991 1.254 1.5 0 0.5l0.982 1.564s1.648 -0.566 1.65 -0.564c0.008 0.008 -0.376 0.5 -0.376 0.5 1.637 -0.099 0.43 -0.277 1.244 0 0.4 0.136 0.728 -0.134 1 0 0 0 -0.022 0.989 0 1 0.247 0.122 0.55 0.258 0.747 0.328 0.11 0.04 -0.583 1.645 0 1.672 0.545 0.025 -0.744 0.867 -0.024 0.855a87 87 0 0 0 4.033 -0.172l0.024 -0.002h0.025a0.7 0.7 0 0 0 0.221 -0.026 0.2 0.2 0 0 0 0.052 -0.025 0.1 0.1 0 0 0 0.017 -0.023 0.4 0.4 0 0 0 0.034 -0.108c0.056 -0.279 -0.005 -0.683 -0.09 -1.16 -0.095 -0.523 0.17 -0.978 0.522 -1.21 0.613 -0.407 0.629 -0.899 0.575 -1.065 -0.1 -0.307 -0.136 -0.763 0.123 -1.17 0.256 -0.4 0.249 -0.657 0.21 -0.815 -0.047 -0.193 -0.178 -0.384 -0.364 -0.566 -0.419 -0.41 -0.468 -1.036 -0.224 -1.504 0.104 -0.199 0.104 -0.328 0.089 -0.41a0.7 0.7 0 0 0 -0.174 -0.319 1.4 1.4 0 0 0 -0.495 -0.345h-4.156V5.718c0 -2.387 -0.551 -3.273 -1.004 -3.606 -0.466 -0.343 -1.114 -0.325 -1.876 -0.155M20.52 0.85c1.064 0.783 1.636 2.333 1.636 4.869v1.164h2.7c0.164 0 0.318 0.044 0.424 0.08q0.181 0.064 0.37 0.167c0.245 0.135 0.521 0.335 0.76 0.602 0.238 0.268 0.46 0.629 0.544 1.078 0.074 0.4 0.028 0.822 -0.15 1.242 0.248 0.276 0.511 0.659 0.631 1.15 0.146 0.602 0.054 1.26 -0.346 1.937 0.25 0.87 -0.085 1.942 -1.022 2.661 0.07 0.411 0.146 0.993 0.042 1.513 -0.069 0.343 -0.227 0.724 -0.566 1.013 -0.334 0.285 -0.755 0.405 -1.212 0.409 -1.033 0.068 -2.627 0.15 -4.084 0.173 -0.734 0.012 0.564 -1.525 -0.024 -1.552 -0.552 -0.025 0.127 -0.231 -0.223 -0.355 -0.285 -0.1 0.233 -0.885 0 -1h-0.5c-0.26 -0.128 0.754 -1.619 0.449 -1.723 -0.598 -0.203 -1.463 -0.367 -2.949 -0.277a1.556 1.556 0 0 1 -1.637 -1.565l-0.277 -1.46c0 -0.882 -1.28 -2.85 -0.586 -2.975 1.397 -0.25 0.586 0 1.754 -2.865V1.95c0 -0.695 0.456 -1.342 1.16 -1.502 0.806 -0.183 2.06 -0.367 3.106 0.402" fill="white"></path></svg>
